X:1
T:Heather Drone March
C:Tony Koop / Heifer Zephyr (2026)
S:Public domain or original as noted in notes.md
M:2/4
L:1/8
Q:1/4=92
K:Amix
H:A mixolydian starter arrangement for Great Highland Bagpipe. Refs #1
A B d e | f2 e2 | d B A G | A4 |
A B d f | a f e d | B d e f | A4 |
f a f e | d f e d | B d B A | G2 A2 |
A B d e | f e d B | G A B d | A4 |
A d f a | f e d B | A B d e | f4 |
a f e d | B d e f | G A B d | A4 |]
